!!!COM: Bach, Johann Sebastian (disputed)
!!!OTL: Fuga
!!!OMV: 2
!!!SCT: BWV 558
!!!SCA: Thematisches-systematisches Verzeichnis der musikalischen Werke von Johann Sebastian Bach (Schmieder 1990)
**kern	**kern	**kern	**kern
*MM76	*MM76	*MM76	*MM76
*k[b-e-]	*k[b-e-]	*k[b-e-]	*k[b-e-]
*M4/4	*M4/4	*M4/4	*M4/4
*tb64	*tb64	*tb64	*tb64
=1	=1	=1	=1
1r	1r	1r	2dd
.	.	.	8ee-
.	.	.	8dd
.	.	.	8ee-
.	.	.	8cc
=2	=2	=2	=2
1r	1r	1r	4dd
.	.	.	8r
.	.	.	8g
.	.	.	8a
.	.	.	8a
.	.	.	8dd
.	.	.	8cc
=3	=3	=3	=3
1r	1r	1r	8b-
.	.	.	8g
.	.	.	8dd
.	.	.	8dd
.	.	.	8b-
.	.	.	8g
.	.	.	[4ee-
=4	=4	=4	=4
1r	1r	1r	4ee-]
.	.	.	2dd
.	.	.	[4cc
=5	=5	=5	=5
1r	1r	2g	8cc]
.	.	.	16b-
.	.	.	16a
.	.	.	8b-
.	.	.	8cc
.	.	8b-	4dd
.	.	8a	.
.	.	8b-	[4gg
.	.	8g	.
=6	=6	=6	=6
1r	1r	4a	8gg]
.	.	.	8cc#
.	.	8r	2dd
.	.	8d	.
.	.	8e	.
.	.	8e	.
.	.	8a	4cc#
.	.	8a	.
=7	=7	=7	=7
1r	1r	8f	4dd
.	.	8d	.
.	.	8a	8r
.	.	8a	8cc#
.	.	8f	4dd
.	.	8d	.
.	.	[4b-	8r
.	.	.	8dd
=8	=8	=8	=8
1r	1r	4b-]	8cc
.	.	.	8cc
.	.	2a	8cc
.	.	.	16dd
.	.	.	16cc
.	.	.	8b-
.	.	.	8b-
.	.	[4g	8b-
.	.	.	16cc
.	.	.	16b-
=9	=9	=9	=9
1r	2d	4g]	4.a
.	.	4f#	.
.	.	.	[8dd
.	8e-	2g	4dd]
.	8d	.	.
.	8e-	.	[4cc
.	8c	.	.
=10	=10	=10	=10
1r	4d	4f#	8cc]
.	.	.	8a
.	8r	2g	4b-
.	8G	.	.
.	8A	.	2a
.	8A	.	.
.	8d	4f#	.
.	8c	.	.
=11	=11	=11	=11
1r	8B-	4g	4b-
.	8G	.	.
.	8d	8r	8r
.	8d	8f#	8a
.	8B-	4g	4b-
.	8G	.	.
.	[4e-	8r	8r
.	.	8g	8cc
=12	=12	=12	=12
1r	4e-]	8f	8a
.	.	8f	8a
.	2d	8f	4dd
.	.	16g	.
.	.	16f	.
.	.	8e	8g
.	.	8e	8g
.	[4c	8e	4cc
.	.	16f	.
.	.	16e	.
=13	=13	=13	=13
1r	4c]	8d	8f#
.	.	8d	8f#
.	8B-	4d	[4g
.	16A	.	.
.	16G	.	.
.	2A	2c	8g]
.	.	.	16a
.	.	.	16g
.	.	.	8.f#
.	.	.	16g
=14	=14	=14	=14
2G	8B-	4d	8g
.	8c	.	8a
.	[4d	[4g	8b-
.	.	.	8cc
8B-	4d]	4g]	4dd
8A	.	.	.
8B-	8r	8r	8r
8G	[8g	8b-	8dd
=15	=15	=15	=15
4A	8g]	4a	4cc#
.	16f	.	.
.	16e	.	.
8r	4f	4a	2dd
8D	.	.	.
8E	4e	4b	.
8E	.	.	.
8A	4e	[4a	4cc#
8G	.	.	.
=16	=16	=16	=16
8F	4f	4a]	4dd
8D	.	.	.
8A	8r	8r	8r
8A	8e	8a	8cc#
8F	4f	4a	4dd
8D	.	.	.
[4B-	4d	[4g	8r
.	.	.	8dd
=17	=17	=17	=17
4B-]	4e	4g]	8cc
.	.	.	8cc
2A	4f	4a	8cc
.	.	.	16dd
.	.	.	16cc
.	4d	4f	8b-
.	.	.	8b-
[4G	4e	4g	8b-
.	.	.	16cc
.	.	.	16b-
=18	=18	=18	=18
4G]	4c#	4e	8a
.	.	.	8a
4F	4d	4f	8a
.	.	.	16b-
.	.	.	16a
2E	4B	4d	8g
.	.	.	8g
.	4G	4c#	8g
.	.	.	16a
.	.	.	16g
=19	=19	=19	=19
4D	4A	4d	8f
.	.	.	8a
8r	8r	8r	2dd
8D	8A	8f	.
8G	4B-	2e	.
8E	.	.	.
8A	4A	.	4cc#
8AA	.	.	.
=20	=20	=20	=20
4D	4A	4f	4dd
4r	8r	2b-	4ff
.	8d	.	.
2r	8c	.	2ee-
.	8c	.	.
.	8c	[4a	.
.	16d	.	.
.	16c	.	.
=21	=21	=21	=21
1r	8B-	4a]	2dd
.	8B-	.	.
.	8B-	2g	.
.	16c	.	.
.	16B-	.	.
.	8A	.	2cc
.	8A	.	.
.	8A	[4f	.
.	16B-	.	.
.	16A	.	.
=22	=22	=22	=22
1r	8G	4f]	2b-
.	8G	.	.
.	8G	[4e-	.
.	16A	.	.
.	16G	.	.
.	4F	8e-]	4a
.	.	16f	.
.	.	16e-	.
.	8BB-	4d	[4b-
.	8D	.	.
=23	=23	=23	=23
1r	8E-	8c	4.b-]
.	8C	16d	.
.	.	16e-	.
.	8F	8d	.
.	8FF	8c	8a
.	4BB-	4d	4b-
.	[4B-	4d	8r
.	.	.	8dd
=24	=24	=24	=24
1r	4B-]	2c	8ee-
.	.	.	8ee-
.	2A	.	8ee-
.	.	.	16ff
.	.	.	16ee-
.	.	2B-	8dd
.	.	.	8dd
.	[4G	.	8dd
.	.	.	16ee-
.	.	.	16dd
=25	=25	=25	=25
1r	4G]	2A	8cc
.	.	.	8cc
.	4F#	.	8cc
.	.	.	16dd
.	.	.	16cc
.	8G	4G	8b-
.	8A	.	8cc
.	8B-	[4g	8dd
.	8c	.	8ee-
=26	=26	=26	=26
2D	4d	4g]	4.a
.	4A	4f#	.
.	.	.	[8dd
8E-	4G	2g	4dd]
8D	.	.	.
8E-	[4A	.	[4cc
8C	.	.	.
=27	=27	=27	=27
4D	4A]	4f#	8cc]
.	.	.	16b-
.	.	.	16a
8r	8r	2g	4b-
8GG	8d	.	.
8AA	4c	.	2a
8AA	.	.	.
8D	[4d	4f#	.
8C	.	.	.
=28	=28	=28	=28
8BB-	4d]	4g	4b-
8GG	.	.	.
8D	8r	8r	8r
8D	8d	8f#	8a
8BB-	4d	4g	4b-
8GG	.	.	.
[4E-	4G	8r	8r
.	.	8g	8cc
=29	=29	=29	=29
4E-]	4c	8f	8a
.	.	8f	8a
2D	4F	8f	4b-
.	.	16g	.
.	.	16f	.
.	4B-	8e-	8g
.	.	8e-	8g
[4C	4E-	8e-	4a
.	.	16f	.
.	.	16e-	.
=30	=30	=30	=30
4C]	4A	8d	8f#
.	.	8d	8f#
4BB-	4G	8d	2g
.	.	16e-	.
.	.	16d	.
2AA	4A	8c	.
.	.	8c	.
.	4C	8c	4f#
.	.	16d	.
.	.	16c	.
=31	=31	=31	=31
4GG	8D	8B-	2g
.	8F	8B	.
4r	8E-	[4c	.
.	8D	.	.
2r	4F	4c]	8a-
.	.	.	8g
.	8r	8r	8a-
.	8B-	8d	8f
=32	=32	=32	=32
1r	8E-	4e-	4g
.	8F	.	.
.	8G	8r	8r
.	8A-	[8A-	8c
.	2BB	4A-]	8d
.	.	.	8d
.	.	[4G	8g
.	.	.	8f
=33	=33	=33	=33
1r	4C	4G]	8e-
.	.	.	8c
.	8r	8r	8g
.	8BB	8G	8g
.	4C	4G	8e-
.	.	.	8c
.	8r	8r	[4a-
.	8c	8e-	.
=34	=34	=34	=34
1r	8B-	8d	4a-]
.	8B-	8d	.
.	8B-	8d	2g
.	16c	16e-	.
.	16B-	16d	.
.	8A-	8c	.
.	8A-	8c	.
.	8A-	8c	[4f
.	16B-	16d	.
.	16A-	16c	.
=35	=35	=35	=35
1r	4G	4B	8f]
.	.	.	8d
.	8r	2c	4e-
.	8C	.	.
.	8F	.	2d
.	8D	.	.
.	8G	4Bt	.
.	8GG	.	.
=36	=36	=36	=36
1r	4C	8c	8e-
.	.	8d	8f
.	8r	4e-	4g
.	[8c	.	.
.	8c]	4d	4f#
.	8c	.	.
.	8c	[4a	4f#
.	16d	.	.
.	16c	.	.
=37	=37	=37	=37
1r	8B-	4a]	2dd
.	8A	.	.
.	8B-	8g	.
.	8G	8b-	.
.	4c	8cc	8ee-
.	.	8b-	8dd
.	8r	8cc	8ee-
.	8F	8a	8cc
=38	=38	=38	=38
4r	8B-	8f	4dd
.	8A	8f#	.
2G	4B-	4g	8r
.	.	.	8g
.	4c	4e-	8a
.	.	.	8a
4F#	4A	[4d	8dd
.	.	.	8cc
=39	=39	=39	=39
4G	4B-	4d]	8b-
.	.	.	8g
8r	8r	8r	8dd
8F#	8A	8d	8dd
4G	4B-	4d	8b-
.	.	.	8g
8r	8r	8r	[4ee-
8G	8B-	8b-	.
=40	=40	=40	=40
8F	8c	8a	4ee-]
8F	8c	8a	.
8F	4A	8a	2dd
16G	.	16b-	.
16F	.	16a	.
8E-	8B-	8g	.
8E-	8B-	8g	.
8E-	4G	8g	[4cc
16F	.	16a	.
16E-	.	16g	.
=41	=41	=41	=41
4D	4A	4f#	4cc]
4r	8r	2g	4b-
.	8d	.	.
[2D	8c	.	2a
.	8c	.	.
.	8c	4f#	.
.	16d	.	.
.	16c	.	.
=42	=42	=42	=42
1D_	8B-	4a	4.d
.	8B-	.	.
.	8B-	2g	.
.	16c	.	8dd
.	16B-	.	.
.	4A	.	8cc
.	.	.	8cc
.	4d	4f#	8cc
.	.	.	16dd
.	.	.	16cc
=43	=43	=43	=43
1D]	8G	4d	8b-
.	8A	.	8a
.	8B-	[4d	2g
.	16A	.	.
.	16G	.	.
.	4A	4.d]	.
.	4D	.	4f#
.	.	8c	.
=44	=44	=44	=44
[1GG	8E-	4B	[2g
.	8E-	.	.
.	8E-	[4c	.
.	16F	.	.
.	16E-	.	.
.	[2D	8c]	4.g]
.	.	16d	.
.	.	16c	.
.	.	8B	.
.	.	8A	8f# 8c
=45	=45	=45	=45
1GG]	1D]	1B	1g 1d
==	==	==	==
*-	*-	*-	*-
!!!ENC: Peter van Kranenburg (peter@musical-style-recognition.net)
!!!END: 2006-11-9
